FINK
CUT[AUF IHR BRUEDER SINGET LIEDER]
REG[Europa, Mitteleuropa, Deutschland]
KEY[F0498  08 Eb 4/4]
MEL[  -3_.-2-2-1-1_  -5_.-4-4-3-3_
    1_.-7-6-5-4-3  -5_.-3-2-5-4-2
    -3_.-2-2-1-1_  -5_.-4-4-3-3_
    1_.-7-6-5-4-3  -5_.-3-2_0_
    -7_.-7-7-6-5-6  -7_1_21-7-6
    -7_.-7-7-6-5-6  -7_1_21-7_
    1_.-5-6_.-3  -4_-5_-6_0_
    1-7-6-5-6-712  3_2_1_0_ //] >>
FCT[Studenten - Lied]
